package/converter/svg/solid/square-d.svg

<svg xmlns="http://www.w3.org/2000/svg" viewBox="0 0 448 512"><!-- Font Awesome Pro 6.0.0-alpha2 by @fontawesome - https://fontawesome.com License - https://fontawesome.com/license (Commercial License) --><path d="M222.406 176H176V336H222.406C267.391 336 304 300.125 304 256C304 211.891 267.391 176 222.406 176ZM384 32H64C28.654 32 0 60.654 0 96V416C0 451.346 28.654 480 64 480H384C419.348 480 448 451.346 448 416V96C448 60.654 419.348 32 384 32ZM222.406 384H152C138.75 384 128 373.25 128 360V152C128 138.75 138.75 128 152 128H222.406C293.859 128 352 185.422 352 256C352 326.594 293.859 384 222.406 384Z"/></svg>

<svg xmlns="http://www.w3.org/2000/svg" viewBox="0 0 448 512"><!--! Font Awesome Pro 6.6.0 by @fontawesome - https://fontawesome.com License - https://fontawesome.com/license (Commercial License) Copyright 2024 Fonticons, Inc. --><path d="M64 32C28.7 32 0 60.7 0 96L0 416c0 35.3 28.7 64 64 64l320 0c35.3 0 64-28.7 64-64l0-320c0-35.3-28.7-64-64-64L64 32zm88 96l72 0c70.7 0 128 57.3 128 128s-57.3 128-128 128l-72 0c-13.3 0-24-10.7-24-24l0-208c0-13.3 10.7-24 24-24zm24 208l48 0c44.2 0 80-35.8 80-80s-35.8-80-80-80l-48 0 0 160z"/></svg>
